X: 40171
T: Tim's
R: mazurka
M: 3/4
K: Bminor
|:dc|B2 FB dB|c2 A2 dc|B2 GB dB|A2 F2 dc|
B2 FB df|e2 Ag fe|dc Bd cA|B3c:|
|:de|f3f ge|f2 df ec|d2 Be dc|d2 B2 A2|
dA FG AF|GB E2 g2|fe de cA|1 B3c:|2 d4||

